img/fa/home-regular-white.svg

<svg viewBox="0 0 576 512" xmlns="http://www.w3.org/2000/svg"><path d="m557.1 240.7-45.1-36.9v-99.8c0-4.4-3.6-8-8-8h-32c-4.4 0-8 3.6-8 8v60.5l-150.6-123.4c-14.7-12.1-36-12.1-50.7 0l-243.8 199.6c-3.4 2.8-3.9 7.8-1.1 11.3l20.3 24.8c2.8 3.4 7.8 3.9 11.3 1.1l14.7-12v198.1c0 8.8 7.2 16 16 16h168c4.4 0 8-3.6 8-8v-128h64v128c0 4.4 3.6 8 8 8h168c8.8 0 16-7.2 16-16v-198.2l14.7 12c3.4 2.8 8.5 2.3 11.3-1.1l20.3-24.8c2.6-3.4 2.1-8.4-1.3-11.2zm-93.1 191.3h-96v-128c0-4.4-3.6-8-8-8h-144c-4.4 0-8 3.6-8 8v128h-96v-205.5l170.9-140c2.9-2.4 7.2-2.4 10.1 0l170.9 140v205.5z" fill="#ededed"/></svg>

<?xml version="1.0" encoding="UTF-8" standalone="no"?>
<svg
   xmlns:dc="http://purl.org/dc/elements/1.1/"
   xmlns:cc="http://creativecommons.org/ns#"
   xmlns:rdf="http://www.w3.org/1999/02/22-rdf-syntax-ns#"
   xmlns:svg="http://www.w3.org/2000/svg"
   xmlns="http://www.w3.org/2000/svg"
   xmlns:sodipodi="http://sodipodi.sourceforge.net/DTD/sodipodi-0.dtd"
   xmlns:inkscape="http://www.inkscape.org/namespaces/inkscape"
   aria-hidden="true"
   data-prefix="far"
   data-icon="home"
   role="img"
   viewBox="0 0 576 512"
   class="svg-inline--fa fa-home fa-w-18 fa-7x"
   version="1.1"
   id="svg851"
   sodipodi:docname="home-regular-white.svg"
   inkscape:version="0.92.4 (5da689c313, 2019-01-14)">
  <metadata
     id="metadata857">
    <rdf:RDF>
      <cc:Work
         rdf:about="">
        <dc:format>image/svg+xml</dc:format>
        <dc:type
           rdf:resource="http://purl.org/dc/dcmitype/StillImage" />
        <dc:title></dc:title>
      </cc:Work>
    </rdf:RDF>
  </metadata>
  <defs
     id="defs855" />
  <sodipodi:namedview
     pagecolor="#ffffff"
     bordercolor="#666666"
     borderopacity="1"
     objecttolerance="10"
     gridtolerance="10"
     guidetolerance="10"
     inkscape:pageopacity="0"
     inkscape:pageshadow="2"
     inkscape:window-width="1850"
     inkscape:window-height="1016"
     id="namedview853"
     showgrid="false"
     inkscape:zoom="1.6328125"
     inkscape:cx="288"
     inkscape:cy="256"
     inkscape:window-x="70"
     inkscape:window-y="27"
     inkscape:window-maximized="1"
     inkscape:current-layer="svg851" />
  <path
     fill="currentColor"
     d="M557.1 240.7L512 203.8V104c0-4.4-3.6-8-8-8h-32c-4.4 0-8 3.6-8 8v60.5L313.4 41.1c-14.7-12.1-36-12.1-50.7 0L18.9 240.7c-3.4 2.8-3.9 7.8-1.1 11.3l20.3 24.8c2.8 3.4 7.8 3.9 11.3 1.1l14.7-12V464c0 8.8 7.2 16 16 16h168c4.4 0 8-3.6 8-8V344h64v128c0 4.4 3.6 8 8 8h168c8.8 0 16-7.2 16-16V265.8l14.7 12c3.4 2.8 8.5 2.3 11.3-1.1l20.3-24.8c2.6-3.4 2.1-8.4-1.3-11.2zM464 432h-96V304c0-4.4-3.6-8-8-8H216c-4.4 0-8 3.6-8 8v128h-96V226.5l170.9-140c2.9-2.4 7.2-2.4 10.1 0l170.9 140V432z"
     class=""
     id="path849"
     style="fill:#ededed;fill-opacity:1" />
</svg>
